!!!SOCIAL_FUNCTION:	initiation songs of the first and second degrees
!!!PDT:	1909
!!!OTL: No_1_Song_of_the_Four_Bears.krn
!!!REG: Great_Lakes
!!!LANG: Non-Tone
!!!LING_GROUP: Algonquin
**kern	**kern
*staff2	*staff1
*clefF4	*clefF4
*k[b-]	*k[b-]
*M2/4	*M2/4
8r	8c\
=1	=1
8GG/L	8c\L
8GG/J	8c\J
8GG/L	4c\
8GG/J	.
=2	=2
8GG/L	2c\
8GG/J	.
8GG/L	.
8GG/J	.
=3	=3
2r	4.c\
.	8A\
=4||	=4||
*M3/4	*M3/4
2.r	4..G\
.	16G\
.	(8F\L
.	8D\J)
=5||	=5||
*M2/4	*M2/4
2r	2D\
=6	=6
2r	4.D\
.	8G\
=7	=7
2r	8G\L
.	8G\J
.	4G\
=8	=8
2r	2G\
=9	=9
2r	4.G\
.	8G\
=10||	=10||
*M3/4	*M3/4
2.r	4..F\
.	16F\
.	(8F\L
.	8D\J)
=11||	=11||
*M2/4	*M2/4
2r	2D\
=12	=12
2r	4C/
.	4C/
=13	=13
2r	4.C/
.	8C/
=14||	=14||
*M3/4	*M3/4
2.r	4.C/
.	8C/
.	(8C/L
.	8AA/J)
=15||	=15||
*M2/4	*M2/4
2r	2AA/
=16	=16
2r	4FF/
.	4FF/
=17	=17
2r	4.FF/
.	8G\
=18	=18
2r	4.G\
.	8G\
=19	=19
2r	2G\
=20	=20
2r	2G\
=21	=21
2r	2G\
=22	=22
2r	4.D\
.	8G\
=23	=23
2r	8G\L
.	8G\J
.	4G\
=24	=24
2r	2G\
=25	=25
2r	4.G\
.	8G\
=26||	=26||
*M3/4	*M3/4
2.r	4..F\
.	16F\
.	(8F\L
.	8D\J)
=27||	=27||
*M2/4	*M2/4
2r	2D\
=28	=28
2r	4C/
.	4C/
=29	=29
2r	4.C/
.	8C/
=30||	=30||
*M3/4	*M3/4
2.r	4.C/
.	8C/
.	8C/L
.	8AA/J
=31||	=31||
*M2/4	*M2/4
2r	2AA/
=32	=32
2r	4FF/
.	4FF/
=33	=33
2r	4.FF/
.	8C/
=34	=34
4GG^/	16D^\LK
.	8.D-\J
4GG^/	8.C^/L
.	16C/Jk
=35	=35
4GG^/	16D^\LK
.	8.D-\J
4GG^/	4C^/
==	==
*-	*-
